X: 40036
T: Three-Footed Chestnut, The
R: three-two
M: 3/2
K: Dmajor
D2d2D2d2cded|d3f gfed c2A2|D2d2D2d2cdef|g3 a gfed c2A2:|
B4A4d3d|[M:4/4]edegf2d2|[M:3/2]B4A4d3d|[M:4/4]e2A2B2A2|1 gfegf2d2:|2 gfe2d4||

